X:1
T:Title
%%score { ( 1 3 ) | ( 2 4 ) }
L:1/8
Q:1/4=100
M:4/4
K:D
V:1 treble nm="Grand Piano"
V:3 treble 
V:2 bass 
V:4 bass 
V:1
 [DFA]2 [A,DF][A,EG] [DFA]2 [DFA][DAd] | [DBd]2 [DAc][DGB] [DGB] [DFA]3 | %2
w: John~R.~Sweney * * * * *||
 [CEA]2 [A,CE][A,DF] [CEG]2 [Gc][CGB] | [DFA]2 [B,=F^G][^A,E=G] [=A,D^F]4 | %4
w: ||
 [DFA]2 [A,DF][A,EG] [DFA]2 [DFA][DAd] | [DBd]2 [DAc][DGB] [GB] [FA]3 | %6
w: ||
 [GB]2 [Gc][Gc] [Fd]2 [DFA][A,DF] | [A,CA]2 [G,CE][A,CF] [F,D]4 | %8
w: ||
 [Gc]2 [GB][Gc] [Fd]2 [DFA][A,DF] | [CEA]2 [A,CE][A,FA] [A,EG] [A,DF]3 | %10
w: ||
 [Gc]2 [GB][Gc] [Fd]2 [FA]F | E2 BE A2- [GA]2 | [DFA]2 [A,DF][A,EG] [DFA]2 [DFA][DAd] | %13
w: |||
 [DBd]2 [DAc][DGB] [GB] [FA]3 | [GB]2 [Gc][Gc] [Fd]2 [DFA][A,DF] | %15
w: ||
 [A,CA]2 [G,CE][A,CF][K:bass] [F,D]4 |] %16
w: |
V:2
 D,2 D,D, D,2 D,F, | G,2 G,G, D, D,3 | A,,2 A,,A,, A,,2 [A,,A,]A,, | D,2 D,D, D,4 | %4
 D,2 D,D, D,2 D,F, | G,2 G,G, [D,D] [D,D]3 | [G,D]2 [E,A,][E,A,] [D,A,]2 D,D, | A,,2 A,,A,, D,4 | %8
 [A,,E,]2 [A,,E,][A,,A,] [D,A,]2 D,D, | A,,2 A,,A,, D, D,3 | %10
 [A,,A,]2 [A,,E,][A,,A,] [D,A,]2 [D,D][D,A,D] | [E,A,C]2 [E,^G,D]E, E,2 C2 | D,2 D,D, D,2 D,F, | %13
 G,2 G,G, [D,D] [D,D]3 | [G,D]2 [E,A,][E,A,] [D,A,]2 D,D, | A,,2 A,,A,, D,4 |] %16
V:3
 x8 | x8 | x8 | x8 | x8 | x8 | x8 | x8 | x8 | x8 | x8 | z4 C2 z2 | x8 | x8 | x8 | x4[K:bass] x4 |] %16
V:4
 x8 | x8 | x8 | x8 | x8 | x8 | x8 | x8 | x8 | x8 | x8 | z4 A,,4 | x8 | x8 | x8 | x8 |] %16

